!!!!SEGMENT: pl-sa--37-a-i-37--001_anonim--pastorella-a-colz-sie-to-dzieje.krn
!!!cenid: 17xx:1238
!!!COM: Anonim
!!!COM-rismID: pe30004985
!!!CDT:
!!!CNT:
!!!OPR: Pastorella
!!!OTL: A cóż się to dzieje
!!!OMV: 001
!!!PDT: 1773
!!!AGN:
!!!SMS-siglum: PL-SA
!!!SMS-shelfmark: 37/A I 37
!!!SMS-shelfwork: 001-001 M
!!!SMS-variant:
!!!SMS-altvar:
!!!NIFC-rismSourceID: 1001069554
!!!NIFC-rismChildID: 1001069554
!!!NIFC-islandoraID: none
!!!URL-pdf-islandora:
!!!URL-scan: https://bc.bdsandomierz.pl/dlibra/publication/1287/edition/1255/content @EN{Scan in the Sandomierz Diocese Digital Library} @PL{Skany w portalu Cyfrowa Biblioteka Diecezjalna w Sandomierzu}
!!!IIIF:
!!!ONB-nifc: UWAGA: części Pastorelli: A cóż się to dzieje, Poczekaj bracie, Jak ja pójdę
!!!AIN: 1 alto 1 bass 1 organ 1 soprn 1 tenor 1 tuba 2 violn
!!!key: D
**kern	**kern	**kern	**kern	**kern	**text	**kern	**kern	**kern	**kern
*group5	*group4	*group3	*group3	*group2	*	*group2	*group2	*group2	*group1
*part9	*part8	*part7	*part6	*part5	*part5	*part4	*part3	*part2	*part1
*staff9	*staff8	*staff7	*staff6	*staff5	*staff5	*staff4	*staff3	*staff2	*staff1
*I"Organe	*I"Tuba Solo	*I"Violino Secundo	*I"Violino Primo	*I"Baſso	*	*I"Tenore	*I"Alto	*I"Canto	*I"Principale
*I'[Org]	*I'tb	*I'[Vl 2]	*I'[Vl 1]	*I'[B]	*	*I'[T]	*I'[A]	*I'[C]	*I'principale
*Iorgan	*Ituba	*Ivioln	*Ivioln	*Ibass	*	*Itenor	*Ialto	*Isoprn	*
*ICklav	*ICbras	*ICvioln	*ICvioln	*ICvox	*	*ICvox	*ICvox	*ICvox	*
*clefF4	*clefG2	*clefG2	*clefG2	*clefF4	*	*clefC4	*clefC3	*clefC1	*clefG2
*	*ITrd-1c-2	*	*	*	*	*	*	*	*ITrd-1c-2
*k[f#c#]	*k[f#c#]	*k[f#c#]	*k[f#c#]	*k[f#c#]	*	*k[f#c#]	*k[f#c#]	*k[f#c#]	*k[f#c#]
*D:	*D:	*D:	*D:	*D:	*	*D:	*D:	*D:	*D:
*M3/4	*M3/4	*M3/4	*M3/4	*M3/4	*	*M3/4	*M3/4	*M3/4	*M3/4
=1	=1	=1	=1	=1	=1	=1	=1	=1	=1
*	*	*	*2\right	*	*	*	*	*	*
!	!	!	!LO:TX:t=P:problem=all\right&colon; global	!	!	!	!	!	!
!	!LO:TX:t=P::problem=zgodnie z RISM&colon; "Tuba pastoralis" presumably indicating tromba marina	!	!LO:TX:t=P:problem=kolejność znaków ff# cc# f#	!	!	!	!	!	!
!	!LO:TX:t=P:problem=all\middle&colon; global	!	!LO:TX:a:t=Clarino	!	!	!	!	!	!
!LO:TX:a:B:t=Andante	!LO:TX:a:B:t=Andante	!LO:TX:a:B:t=Andante	!LO:TX:a:B:t=Andante	!LO:TX:a:B:t=Andante	!	!LO:TX:a:B:t=Aria 1ma et 2da Tacet	!LO:TX:a:B:t=Aria 1ma et 2da Tacet	!LO:TX:a:B:t=Aria 1ma et 2da Tacet	!LO:TX:a:B:t=Andante
2.D/	4dd\	2.d/	4dd\	0.r	.	2.ryy	2.ryy	2.ryy	4d/
.	4ff#\	.	4ff#\	.	.	.	.	.	4r
.	4aa\	.	4aa\	.	.	.	.	.	4r
=2	=2	=2	=2	=2-	=2	=2	=2	=2	=2
2.D/	8dd\L	2.d/	8dd\L	.	.	2.ryy	2.ryy	2.ryy	4d/
.	8ff#\	.	8ff#\	.	.	.	.	.	.
.	8dd\	.	8dd\	.	.	.	.	.	4r
.	8ff#\J	.	8ff#\J	.	.	.	.	.	.
.	4aa\	.	4aa\	.	.	.	.	.	4r
=3	=3	=3	=3	=3-	=3	=3	=3	=3	=3
2.D/	4dd\	2.d/	4dd\	.	.	2.ryy	2.ryy	2.ryy	4d/
.	4ff#\	.	4ff#\	.	.	.	.	.	4r
.	4aa\	.	4aa\	.	.	.	.	.	4r
=4	=4	=4	=4	=4-	=4	=4	=4	=4	=4
*^	*	*	*	*	*	*	*	*	*
*2\right	*	*2\right	*	*	*	*	*	*	*	*
!	!	!	!LO:TX:t=P:problem=all\middle&colon; global	!	!	!	!	!	!	!
2.A/	2.D\	2ddd\	4ff#\	4aa\	.	.	2.ryy	2.ryy	2.ryy	4d/
.	.	.	8ff#\L	8aa\L	.	.	.	.	.	4r
.	.	.	8dd\	8ff#\	.	.	.	.	.	.
.	.	4r	8ee\	8gg\	.	.	.	.	.	4r
.	.	.	8cc#\J	8ee\J	.	.	.	.	.	.
=5	=5	=5	=5	=5	=5-	=5	=5	=5	=5	=5
2.A/	2.D\	1.r	4ff#\	4aa\	0.r	.	2.ryy	2.ryy	2.ryy	1.r
.	.	.	8ff#\L	8aa\L	.	.	.	.	.	.
.	.	.	8dd\	8ff#\	.	.	.	.	.	.
.	.	.	8ee\	8gg\	.	.	.	.	.	.
.	.	.	8cc#\J	8ee\J	.	.	.	.	.	.
=6	=6	=6-	=6	=6	=6-	=6	=6	=6	=6	=6-
2.A/	2.D\	.	4ff#\	4aa\	.	.	2.ryy	2.ryy	2.ryy	.
.	.	.	8ff#\L	8aa\L	.	.	.	.	.	.
!	!	!	!	!LO:SIC:s=8gg	!	!	!	!	!	!
.	.	.	8ee\	8ff#\	.	.	.	.	.	.
.	.	.	8ee\	8gg\	.	.	.	.	.	.
.	.	.	8dd\J	8ee\J	.	.	.	.	.	.
=7	=7	=7-	=7	=7	=7-	=7	=7	=7	=7	=7-
2.A/	2.D\	2.r	8dd\L	8ff#\L	.	.	2.ryy	2.ryy	2.ryy	2.r
.	.	.	8ff#\	8aa\	.	.	.	.	.	.
.	.	.	8ff#\	8aa\	.	.	.	.	.	.
.	.	.	8ee\	8gg\	.	.	.	.	.	.
.	.	.	8ee\	8gg\	.	.	.	.	.	.
.	.	.	8dd\J	8ff#\J	.	.	.	.	.	.
!	!	!	!LO:LB:g=original	!LO:LB:g=original	!	!	!	!	!	!
=8	=8	=8	=8	=8	=8-	=8	=8	=8	=8	=8
*	*	*	*2\right	*	*	*	*	*	*	*
2.A/	2.D\	4dd\	2dd\	4dd\	.	.	2.ryy	2.ryy	2.ryy	4d/
.	.	4ff#\	.	4ff#\	.	.	.	.	.	4r
.	.	4aa\	4r	4aa\	.	.	.	.	.	4r
*v	*v	*	*	*	*	*	*	*	*	*
=9	=9	=9	=9	=9-	=9	=9	=9	=9	=9
1.r	8dd\L	2.d/	8dd\L	0.r	.	2.ryy	2.ryy	2.ryy	4d/
.	8ff#\	.	8ff#\	.	.	.	.	.	.
.	8dd\	.	8dd\	.	.	.	.	.	4r
.	8ff#\J	.	8ff#\J	.	.	.	.	.	.
.	4aa\	.	4aa\	.	.	.	.	.	4r
=10-	=10	=10	=10	=10-	=10	=10	=10	=10	=10
.	4dd\	2.d/	4dd\	.	.	2.ryy	2.ryy	2.ryy	4d/
.	4ff#\	.	4ff#\	.	.	.	.	.	4r
.	4aa\	.	4aa\	.	.	.	.	.	4r
!LO:LB:g=original	!	!	!	!	!	!	!	!	!
=11	=11	=11	=11	=11-	=11	=11	=11	=11	=11
*^	*	*	*	*	*	*	*	*	*
2.A/	2.D\	2ddd\	4ff#\	4aa\	.	.	2.ryy	2.ryy	2.ryy	4d/
.	.	.	8ff#\L	8aa\L	.	.	.	.	.	4r
.	.	.	8dd\	8ff#\	.	.	.	.	.	.
.	.	4r	8ee\	8gg\	.	.	.	.	.	4r
.	.	.	8a\J	8ee\J	.	.	.	.	.	.
!	!	!LO:LB:g=original	!	!	!	!	!	!	!	!LO:LB:g=original
=12	=12	=12	=12	=12	=12-	=12	=12	=12	=12	=12
2.A/	2.D\	0.r	4ff#\	4aa\	.	.	2.ryy	2.ryy	2.ryy	0.r
.	.	.	8ff#\L	8aa\L	.	.	.	.	.	.
.	.	.	8dd\	8ff#\	.	.	.	.	.	.
.	.	.	8ee\	8gg\	.	.	.	.	.	.
.	.	.	8a\J	8ee\J	.	.	.	.	.	.
=13	=13	=13-	=13	=13	=13-	=13	=13	=13	=13	=13-
2.A/	2.D\	.	4ff#\	4aa\	0.r	.	2.ryy	2.ryy	2.ryy	.
.	.	.	8ff#\L	8aa\L	.	.	.	.	.	.
.	.	.	8ee\	8gg\	.	.	.	.	.	.
.	.	.	8ee\	8gg\	.	.	.	.	.	.
.	.	.	8dd\J	8ff#\J	.	.	.	.	.	.
*v	*v	*	*	*	*	*	*	*	*	*
=14	=14-	=14	=14	=14-	=14	=14	=14	=14	=14-
!LO:TX:t=P:problem=4\middle&colon; global	!	!	!	!	!	!	!	!	!
4D\	.	4a/	4ff#\	.	.	2.ryy	2.ryy	2.ryy	.
4F#\	.	8a/L	8ff#\L	.	.	.	.	.	.
.	.	8g/	8ee\	.	.	.	.	.	.
4A\	.	8a/	8ee\	.	.	.	.	.	.
.	.	8f#/J	8dd\J	.	.	.	.	.	.
=15	=15-	=15	=15	=15-	=15	=15	=15	=15	=15-
2.DD/ 2.D/	.	8f#/L	8dd\L	.	.	2.ryy	2.ryy	2.ryy	.
.	.	8a/	8ff#\	.	.	.	.	.	.
.	.	8a/	8ff#\	.	.	.	.	.	.
.	.	8g/	8ee\	.	.	.	.	.	.
.	.	8g/	8ee\	.	.	.	.	.	.
.	.	8f#/J	8dd\J	.	.	.	.	.	.
!	!	!LO:LB:g=original	!	!	!	!	!	!	!
=16	=16-	=16	=16	=16-	=16	=16	=16	=16	=16-
2.DD/ 2.D/	0.r	2f#/	2dd\	.	.	2.ryy	2.ryy	2.ryy	0.r
.	.	4r	4r	.	.	.	.	.	.
!	!	!	!LO:LB:g=original	!	!	!	!	!	!
=17	=17-	=17	=17	=17	=17	=17	=17	=17	=17-
2.DD/ 2.D/	.	2.d/	2.d/ 2.dd/	4D/	A	2.ryy	2.ryy	2.ryy	.
.	.	.	.	4F#/	coƶ	.	.	.	.
.	.	.	.	4D/	się	.	.	.	.
=18	=18-	=18	=18	=18	=18	=18	=18	=18	=18-
!	!	!	!	!LO:TX:t=P:problem=4\middle&colon; global	!	!	!	!	!
2.AA/	.	2.A/	2.A/	4A\	to	2.ryy	2.ryy	2.ryy	.
.	.	.	.	4A\	dƶie-	.	.	.	.
.	.	.	.	4A\	-ie	.	.	.	.
=19	=19-	=19	=19	=19	=19	=19	=19	=19	=19-
2.D/	.	2.d/	2.d/	4D\	nie-	2.ryy	2.ryy	2.ryy	.
.	.	.	.	4F#\	-spo-	.	.	.	.
.	.	.	.	4D\	-dzia-	.	.	.	.
=20	=20-	=20	=20	=20	=20	=20	=20	=20	=20-
*	*	*	*	*2\right	*	*	*	*	*
4AA/	0.r	4A/	4A/	2.A\	-nie	2.ryy	2.ryy	2.ryy	0.r
4BB/	.	4B/	4B/	.	.	.	.	.	.
4C#/	.	4c#/	4c#/	.	.	.	.	.	.
=21	=21-	=21	=21	=21	=21	=21	=21	=21	=21-
2.D/	.	2.d/	2.d/	4D\	przy-	2.ryy	2.ryy	2.ryy	.
.	.	.	.	4F#\	-miej-	.	.	.	.
!	!	!	!	!LO:TX:t=P:4\right:problem	!	!	!	!	!
.	.	.	.	4D\	-cie	.	.	.	.
!LO:LB:g=original	!	!	!	!	!	!	!	!	!
=22	=22-	=22	=22	=22	=22	=22	=22	=22	=22-
2.AA/	.	2.A/	2.A/	4A\	Be-	2.ryy	2.ryy	2.ryy	.
.	.	.	.	4A\	-tle-	.	.	.	.
.	.	.	.	4A\	-em	.	.	.	.
!	!	!	!	!LO:LB:g=original	!	!	!	!	!
=23	=23-	=23	=23	=23	=23	=23	=23	=23	=23-
2.D/	.	2.d/	2.d/	4D\	nad	2.ryy	2.ryy	2.ryy	.
!	!	!	!	!LO:TX:t=P:4\right:problem	!	!	!	!	!
.	.	.	.	4F#\	Ƶwy-	.	.	.	.
.	.	.	.	4D\	-cƵay-	.	.	.	.
=24	=24-	=24	=24	=24	=24	=24	=24	=24	=24-
4AA/	0.r	4A/	4A/	2.A\	-nie	2.ryy	2.ryy	2.ryy	0.r
4BB/	.	4B/	4B/	.	.	.	.	.	.
4C#/	.	4c#/	4c#/	.	.	.	.	.	.
=25	=25-	=25	=25	=25	=25	=25	=25	=25	=25-
2.D/	.	4ff#\	4aa\	0.r	.	2.ryy	2.ryy	2.ryy	.
.	.	8ff#\L	8aa\L	.	.	.	.	.	.
.	.	8dd\	8ff#\	.	.	.	.	.	.
.	.	8ee\	8gg\	.	.	.	.	.	.
.	.	8cc#\J	8ee\J	.	.	.	.	.	.
!	!	!LO:LB:g=original	!	!	!	!	!	!	!
=26	=26-	=26	=26	=26-	=26	=26	=26	=26	=26-
2.D/	.	4a/	4ff#\	.	.	2.ryy	2.ryy	2.ryy	.
.	.	8a/L	8ff#\L	.	.	.	.	.	.
.	.	8f#/	8dd\	.	.	.	.	.	.
.	.	8g/	8ee\	.	.	.	.	.	.
.	.	8e/J	8cc#\J	.	.	.	.	.	.
=27	=27-	=27	=27	=27-	=27	=27	=27	=27	=27-
!LO:N:vis=2.	!	!LO:TX:t=P:problem=skreślony takt	!	!	!	!	!	!	!
2D/	.	4b/	4gg\	.	.	2.ryy	2.ryy	2.ryy	.
.	.	8a/L	8ff#\L	.	.	.	.	.	.
.	.	8f#/	8dd\	.	.	.	.	.	.
4AA/	.	8g/	8ee\	.	.	.	.	.	.
.	.	8e/J	8cc#\J	.	.	.	.	.	.
!	!	!	!LO:LB:g=original	!	!	!	!	!	!
=28	=28	=28	=28	=28-	=28	=28	=28	=28	=28
*^	*	*	*	*	*	*	*	*	*
2.A/	2.D\	4dd\	2f#/	2dd\	.	.	2.ryy	2.ryy	2.ryy	4d/
.	.	4ff#\	.	.	.	.	.	.	.	4r
.	.	4aa\	4a/	4ff#\	.	.	.	.	.	4r
=29	=29	=29	=29	=29	=29-	=29	=29	=29	=29	=29
2.A/	2.D\	8dd\L	4ff#\	4aa\	0.r	.	2.ryy	2.ryy	2.ryy	4d/
.	.	8ff#\	.	.	.	.	.	.	.	.
.	.	8dd\	8dd\L	8ff#\L	.	.	.	.	.	4r
.	.	8ff#\J	8ee\	8gg\	.	.	.	.	.	.
.	.	4aa\	8ff#\	8aa\	.	.	.	.	.	4r
.	.	.	8gg\J	8bb\J	.	.	.	.	.	.
=30	=30	=30	=30	=30	=30-	=30	=30	=30	=30	=30
2.A/	2.D\	4dd\	4ff#\	4aa\	.	.	2.ryy	2.ryy	2.ryy	4d/
.	.	4ff#\	8dd\L	8ff#\L	.	.	.	.	.	4r
.	.	.	8ee\	8gg\	.	.	.	.	.	.
.	.	4aa\	8ff#\	8aa\	.	.	.	.	.	4r
.	.	.	8gg\J	8bb\J	.	.	.	.	.	.
*v	*v	*	*	*	*	*	*	*	*	*
=31	=31	=31	=31	=31-	=31	=31	=31	=31	=31
4D\	0.r	8b/L	8gg\L	.	.	2.ryy	2.ryy	2.ryy	0.r
.	.	8a/	8ff#\	.	.	.	.	.	.
4F#\	.	8a/	8ff#\	.	.	.	.	.	.
.	.	8g/	8ee\	.	.	.	.	.	.
4A\	.	8g/	8ee\	.	.	.	.	.	.
.	.	8f#/J	8dd\J	.	.	.	.	.	.
!LO:LB:g=original	!	!LO:LB:g=original	!	!	!	!	!	!	!
=32	=32-	=32	=32	=32-	=32	=32	=32	=32	=32-
2.D\	.	2.f#/	2.dd\	.	.	2.ryy	2.ryy	2.ryy	.
=33	=33-	=33	=33	=33	=33	=33	=33	=33	=33-
!	!	!	!	!LO:TX:t=P:problem=all\middle&colon; global	!	!	!	!	!
2D\	.	2.d/	2.d/	4.A\	Jeſt	2.ryy	2.ryy	2.ryy	.
!	!	!	!	!LO:TX:t=P:problem=8\left	!	!	!	!	!
.	.	.	.	8G\	ci	.	.	.	.
4D\	.	.	.	8A\	to	.	.	.	.
.	.	.	.	8F#\	coś	.	.	.	.
=34	=34-	=34	=34	=34	=34	=34	=34	=34	=34-
!	!	!	!	!LO:TX:t=P:4\left:problem	!	!	!	!	!
2E\	.	2e/	2e/	4.G\	cu-	2.ryy	2.ryy	2.ryy	.
.	.	.	.	8F#\	-do-	.	.	.	.
4E\	.	4e/	4e/	8G\	-wne-	.	.	.	.
.	.	.	.	8E\	-go	.	.	.	.
=35	=35-	=35	=35	=35	=35	=35	=35	=35	=35-
2F#\	0.r	2f#/	2f#/	4.F#\	a	2.ryy	2.ryy	2.ryy	0.r
.	.	.	.	8E\	ni-	.	.	.	.
4F#\	.	4f#/	4f#/	8F#\	-gdy	.	.	.	.
.	.	.	.	8D\	nie-	.	.	.	.
=36	=36-	=36	=36	=36	=36	=36	=36	=36	=36-
!	!	!	!	!LO:TX:t=P:problem=all\left&colon; global	!	!	!	!	!
4G\	.	4g/	4g/	4.E\	-sły-	2.ryy	2.ryy	2.ryy	.
4G\	.	4g/	4g/	.	.	.	.	.	.
.	.	.	.	8D\	-cha-	.	.	.	.
4A\	.	4a/	4a/	8E\	-ne-	.	.	.	.
.	.	.	.	8C#\	-go	.	.	.	.
!	!	!	!	!LO:LB:g=original	!	!	!	!	!
=37	=37-	=37	=37	=37	=37	=37	=37	=37	=37-
!	!	!	!	!LO:TX:t=P:problem=all\middle&colon; global	!	!	!	!	!
4D/	.	4d/	4d/	4D\	co	2.ryy	2.ryy	2.ryy	.
4D/	.	4d/	4d/	4F#\	się	.	.	.	.
4AA/	.	4A/	4A/	8E\L	dzie-	.	.	.	.
.	.	.	.	8D\J	.	.	.	.	.
=38	=38-	=38	=38	=38	=38	=38	=38	=38	=38-
*	*	*	*	*2\right	*	*	*	*	*
4D\	.	4d/	4d/	2.D\	-ie	2.ryy	2.ryy	2.ryy	.
4F#\	.	4f#/	4f#/	.	.	.	.	.	.
4A\	.	4a/	4a/	.	.	.	.	.	.
!	!	!	!LO:LB:g=original	!	!	!	!	!	!
=39	=39-	=39	=39	=39	=39	=39	=39	=39	=39-
!	!	!	!	!LO:TX:t=P:problem=all\right&colon; global	!	!	!	!	!
4D/	1.r	4d/	4d/	4D\	wbe-	2.ryy	2.ryy	2.ryy	1.r
4D/	.	4d/	4d/	4F#\	-tle-	.	.	.	.
4AA/	.	4A/	4A/	4E\	-e-	.	.	.	.
=40	=40-	=40	=40	=40	=40	=40	=40	=40	=40-
2.D\	.	2.d/	2.d/	2.D\	-mie	2.ryy	2.ryy	2.ryy	.
!LO:LB:g=original	!	!LO:LB:g=original	!	!	!	!	!	!	!
=41	=41	=41	=41	=41	=41	=41	=41	=41	=41
1.r	4dd\	2d/	4dd\	0.r	.	2.ryy	2.ryy	2.ryy	4d/
.	4ff#\	.	4ff#\	.	.	.	.	.	4r
.	4aa\	4r	4aa\	.	.	.	.	.	4r
=42-	=42	=42	=42	=42-	=42	=42	=42	=42	=42
.	8dd\L	2d/	8dd\L	.	.	2.ryy	2.ryy	2.ryy	4d/
.	8ff#\	.	8ff#\	.	.	.	.	.	.
.	8dd\	.	8dd\	.	.	.	.	.	4r
.	8ff#\J	.	8ff#\J	.	.	.	.	.	.
.	4aa\	4r	4aa\	.	.	.	.	.	4r
=43-	=43	=43	=43	=43-	=43	=43	=43	=43	=43
2.r	4dd\	2d/	4dd\	.	.	2.ryy	2.ryy	2.ryy	4d/
.	4ff#\	.	4ff#\	.	.	.	.	.	4r
.	4aa\	4r	4aa\	.	.	.	.	.	4r
=44	=44	=44	=44	=44-	=44	=44	=44	=44	=44
*^	*	*	*	*	*	*	*	*	*
2.A/	2.D\	2ddd\	2.a/	4dd\	.	.	2.ryy	2.ryy	2.ryy	4d/
.	.	.	.	4ff#\	.	.	.	.	.	4r
.	.	4r	.	4aa\	.	.	.	.	.	4r
!	!	!LO:LB:g=original	!	!	!	!	!	!	!	!
=45	=45	=45	=45	=45	=45-	=45	=45	=45	=45	=45
2.A/	2.D\	1.r	2.a/	4dd\	0.r	.	2.ryy	2.ryy	2.ryy	1.r
.	.	.	.	4ff#\	.	.	.	.	.	.
.	.	.	.	4aa\	.	.	.	.	.	.
=46	=46	=46-	=46	=46	=46-	=46	=46	=46	=46	=46-
2.A/	2.D\	.	4ff#\	4aa\	.	.	2.ryy	2.ryy	2.ryy	.
.	.	.	8ff#\L	8aa\L	.	.	.	.	.	.
.	.	.	8ee\	8gg\	.	.	.	.	.	.
.	.	.	8ee\	8gg\	.	.	.	.	.	.
.	.	.	8dd\J	8ff#\J	.	.	.	.	.	.
*v	*v	*	*	*	*	*	*	*	*	*
=47	=47	=47	=47	=47-	=47	=47	=47	=47	=47
4D\	4dd\	4a/	4aa\	.	.	2.ryy	2.ryy	2.ryy	4d/
4F#\	4ff#\	8a/L	8aa\L	.	.	.	.	.	4r
.	.	8g/	8gg\	.	.	.	.	.	.
4A\	4aa\	8g/	8gg\	.	.	.	.	.	4r
.	.	8f#/J	8ff#\J	.	.	.	.	.	.
!	!	!	!LO:LB:g=original	!	!	!	!	!	!LO:LB:g=original
=48	=48	=48	=48	=48-	=48	=48	=48	=48	=48
2.D/	2ddd\	2.f#/	2.dd\	.	.	2.ryy	2.ryy	2.ryy	4d/
.	.	.	.	.	.	.	.	.	4r
.	4r	.	.	.	.	.	.	.	4r
==	==:|	==	==	==	==	==	==	==	==
*-	*-	*-	*-	*-	*-	*-	*-	*-	*-
!!!system-decoration: [(g1)][(g2)][(g3)][(g4)][(g5)]
!!!RDF**kern: > = above
!!!RDF**kern: < = below
!!!ENC: Andrzej Kubiczek
!!!END: 2020-11-22
!!!EED: Jędrzej Mróz
!!!EEV: 2022-01-10
!!!YEC: Copyright 2022 Narodowy Instytut Fryderyka Chopina (https://polishscores.org)
!!!YEM: License CC-BY-4.0 (https://creativecommons.org/licenses/by/4.0)
